remix/Business/flag-2-line.svg

<svg viewBox="0 0 24 24" fill="currentColor" xmlns="http://www.w3.org/2000/svg"><path d="M21.1384 3C21.4146 3 21.6385 3.22386 21.6385 3.5C21.6385 3.58701 21.6157 3.67252 21.5725 3.74807L18 10L21.5725 16.2519C21.7095 16.4917 21.6262 16.7971 21.3865 16.9341C21.3109 16.9773 21.2254 17 21.1384 17H4V22H2V3H21.1384ZM18.5536 5H4V15H18.5536L15.6965 10L18.5536 5Z"/></svg>

<svg viewBox="0 0 24 24" xmlns="http://www.w3.org/2000/svg"><path fill="none" d="M0 0h24v24H0Z"/><path d="M4 17v5H2V3h19.138v0c.27-.01.5.22.5.49 0 .08-.03.17-.07.24l-3.58 6.252 3.57 6.25v0c.13.23.05.54-.19.68 -.08.04-.17.06-.25.06H3.98ZM4 5v10h14.55l-2.86-5 2.85-5H3.98Z"/></svg>
